symbols/web/smart_display/materialsymbolsrounded/smart_display_wght500grad200_24px.svg

<svg xmlns="http://www.w3.org/2000/svg" height="24" width="24"><path d="m11.325 15.75 4.025-2.575q.625-.425.625-1.187 0-.763-.625-1.163L11.325 8.25q-.7-.45-1.425-.062-.725.387-.725 1.212v5.2q0 .825.725 1.212.725.388 1.425-.062Zm-7.25 4.975q-1.175 0-2-.837-.825-.838-.825-2.013V6.125q0-1.175.825-2.013.825-.837 2-.837h15.85q1.175 0 2 .837.825.838.825 2.013v11.75q0 1.175-.825 2.013-.825.837-2 .837Zm0-2.85V6.125v11.75Zm0 0h15.85V6.125H4.075v11.75Z"/></svg>

<svg xmlns="http://www.w3.org/2000/svg" height="24" width="24"><path d="M11.325 15.75 15.35 13.175Q15.975 12.75 15.975 11.988Q15.975 11.225 15.35 10.825L11.325 8.25Q10.625 7.8 9.9 8.188Q9.175 8.575 9.175 9.4V14.6Q9.175 15.425 9.9 15.812Q10.625 16.2 11.325 15.75ZM4.075 20.725Q2.9 20.725 2.075 19.888Q1.25 19.05 1.25 17.875V6.125Q1.25 4.95 2.075 4.112Q2.9 3.275 4.075 3.275H19.925Q21.1 3.275 21.925 4.112Q22.75 4.95 22.75 6.125V17.875Q22.75 19.05 21.925 19.888Q21.1 20.725 19.925 20.725ZM4.075 17.875Q4.075 17.875 4.075 17.875Q4.075 17.875 4.075 17.875V6.125Q4.075 6.125 4.075 6.125Q4.075 6.125 4.075 6.125Q4.075 6.125 4.075 6.125Q4.075 6.125 4.075 6.125V17.875Q4.075 17.875 4.075 17.875Q4.075 17.875 4.075 17.875ZM4.075 17.875H19.925Q19.925 17.875 19.925 17.875Q19.925 17.875 19.925 17.875V6.125Q19.925 6.125 19.925 6.125Q19.925 6.125 19.925 6.125H4.075Q4.075 6.125 4.075 6.125Q4.075 6.125 4.075 6.125V17.875Q4.075 17.875 4.075 17.875Q4.075 17.875 4.075 17.875Z"/></svg>
